Newaita-dark/apps/48/preferences-desktop-online-accounts.svg

<svg height="48pt" viewBox="0 0 48 48" width="48pt" xmlns="http://www.w3.org/2000/svg" xmlns:xlink="http://www.w3.org/1999/xlink"><linearGradient id="a" gradientUnits="userSpaceOnUse" x1="23.81478" x2="23.81478" y1="42.0509045" y2="44.03547050005"><stop offset="0" stop-opacity=".27451"/><stop offset="1" stop-opacity="0"/></linearGradient><linearGradient id="b"><stop offset="0" stop-opacity=".313725"/><stop offset=".222222" stop-opacity=".27451"/><stop offset="1" stop-opacity="0"/></linearGradient><radialGradient id="c" cx="450.908936" cy="189.579361" gradientTransform="matrix(.00000026 -.117199 -.210958 -.00000015 73.234568 95.392999)" gradientUnits="userSpaceOnUse" r="21.166656" xlink:href="#b"/><radialGradient id="d" cx="450.908936" cy="189.579361" gradientTransform="matrix(-.00000026 .117199 .210958 .00000015 -26.597299 -11.291218)" gradientUnits="userSpaceOnUse" r="21.166656" xlink:href="#b"/><radialGradient id="e" cx="450.908936" cy="189.579361" gradientTransform="matrix(-.00000026 -.117199 .210958 -.00000015 -26.597299 95.392999)" gradientUnits="userSpaceOnUse" r="21.166656" xlink:href="#b"/><radialGradient id="f" cx="450.908936" cy="189.579361" gradientTransform="matrix(.00000026 .117199 -.210958 .00000015 73.234565 -11.291219)" gradientUnits="userSpaceOnUse" r="21.166656" xlink:href="#b"/><linearGradient id="g" gradientUnits="userSpaceOnUse" x1="23.814816" x2="23.814816" y1="42.05096580616" y2="4.34417266504"><stop offset="0" stop-color="#26c6da"/><stop offset="1" stop-color="#4dd0e1"/></linearGradient><path d="m12.898438 42.050781h20.839843v1.984375h-20.839843zm0 0" fill="url(#a)"/><path d="m33.738281 42.050781h3.96875v-1.984375h-3.96875zm0 0" fill="url(#c)"/><path d="m12.898438 42.050781h-3.96875v1.984375h3.96875zm0 0" fill="url(#d)"/><path d="m12.898438 42.050781h-3.96875v-1.984375h3.96875zm0 0" fill="url(#e)"/><path d="m33.738281 42.050781h3.96875v1.984375h-3.96875zm0 0" fill="url(#f)"/><path d="m23.816406 4.34375c-4.949218 0-8.933594 3.984375-8.933594 8.929688 0 4.949218 3.984376 8.933593 8.933594 8.933593 4.945313 0 8.929688-3.984375 8.929688-8.933593 0-4.945313-3.984375-8.929688-8.929688-8.929688zm-6.773437 20.71875c-4.253907 1.1875-7.121094 3.457031-7.121094 6.074219v8.929687c0 1.097656.886719 1.984375 1.984375 1.984375h23.816406c1.097656 0 1.984375-.886719 1.984375-1.984375v-8.929687c0-2.617188-2.867187-4.886719-7.121093-6.074219-1.636719 1.898438-4.058594 3.097656-6.769532 3.097656-2.714844 0-5.136718-1.199218-6.773437-3.097656zm0 0" fill="url(#g)"/><path d="m23.816406 4.34375c-4.949218 0-8.933594 3.984375-8.933594 8.929688 0 .085937.003907.167968.003907.25.132812-4.832032 4.0625-8.683594 8.929687-8.683594 4.863282 0 8.796875 3.851562 8.925782 8.683594 0-.082032.003906-.164063.003906-.25 0-4.945313-3.984375-8.929688-8.929688-8.929688zm-6.773437 20.71875c-4.253907 1.1875-7.121094 3.457031-7.121094 6.074219v.496093c0-2.617187 2.867187-4.886718 7.121094-6.074218 1.636719 1.898437 4.058593 3.097656 6.773437 3.097656 2.710938 0 5.132813-1.199219 6.769532-3.097656 4.253906 1.1875 7.121093 3.457031 7.121093 6.074218v-.496093c0-2.617188-2.867187-4.886719-7.121093-6.074219-1.636719 1.898438-4.058594 3.097656-6.769532 3.097656-2.714844 0-5.136718-1.199218-6.773437-3.097656zm0 0" fill="#fff" fill-opacity=".235294"/><path d="m14.886719 13.066406c0 .070313-.003907.140625-.003907.207032 0 4.949218 3.984376 8.933593 8.933594 8.933593 4.945313 0 8.929688-3.984375 8.929688-8.933593 0-.066407 0-.136719-.003906-.207032-.109376 4.851563-4.050782 8.722656-8.925782 8.722656-4.878906 0-8.820312-3.871093-8.929687-8.722656zm-4.964844 26.585938v.414062c0 1.097656.886719 1.984375 1.984375 1.984375h23.816406c1.097656 0 1.984375-.886719 1.984375-1.984375v-.414062c0 1.097656-.886719 1.984375-1.984375 1.984375h-23.816406c-1.097656 0-1.984375-.886719-1.984375-1.984375zm0 0" fill-opacity=".235294"/><path d="m23.816406 4.191406c-5.03125 0-9.085937 4.054688-9.085937 9.082032 0 5.03125 4.054687 9.085937 9.085937 9.085937 5.027344 0 9.082032-4.054687 9.082032-9.085937 0-5.027344-4.054688-9.082032-9.082032-9.082032zm0 .304688c4.863282 0 8.777344 3.914062 8.777344 8.777344 0 4.867187-3.914062 8.78125-8.777344 8.78125-4.867187 0-8.78125-3.914063-8.78125-8.78125 0-4.863282 3.914063-8.777344 8.78125-8.777344zm6.765625 20.414062c-.042969.003906-.085937.023438-.113281.054688-1.605469 1.863281-3.984375 3.042968-6.652344 3.042968-2.667968 0-5.050781-1.179687-6.65625-3.042968-.039062-.042969-.101562-.0625-.15625-.046875-2.144531.597656-3.941406 1.464843-5.214844 2.527343-1.269531 1.0625-2.019531 2.328126-2.019531 3.691407v8.929687c0 1.179688.957031 2.136719 2.136719 2.136719h23.816406c1.179688 0 2.136719-.957031 2.136719-2.136719v-8.929687c0-1.363281-.75-2.628907-2.019531-3.691407-1.273438-1.0625-3.070313-1.929687-5.214844-2.527343-.011719-.003907-.027344-.007813-.042969-.007813zm-13.585937.328125c1.660156 1.886719 4.097656 3.074219 6.820312 3.074219 2.71875 0 5.15625-1.1875 6.816406-3.074219 2.070313.585938 3.804688 1.433594 5.011719 2.441407 1.226563 1.023437 1.910157 2.203124 1.910157 3.457031v8.929687c0 1.019532-.816407 1.832032-1.832032 1.832032h-23.816406c-1.015625 0-1.832031-.8125-1.832031-1.832032v-8.929687c0-1.253907.6875-2.433594 1.910156-3.457031 1.210937-1.007813 2.941406-1.855469 5.011719-2.441407zm0 0" fill="#212121"/></svg>

<?xml version="1.0" encoding="UTF-8"?>
<svg xmlns="http://www.w3.org/2000/svg" xmlns:xlink="http://www.w3.org/1999/xlink" width="48pt" height="48pt" viewBox="0 0 48 48" version="1.1">
<defs>
<linearGradient id="linear0" gradientUnits="userSpaceOnUse" x1="254" y1="233.5" x2="254" y2="254.666672" gradientTransform="matrix(0.093759,0,0,0.093759,-0.00000572259,20.158178)">
<stop offset="0" style="stop-color:rgb(0%,0%,0%);stop-opacity:0.27451;"/>
<stop offset="1" style="stop-color:rgb(0%,0%,0%);stop-opacity:0;"/>
</linearGradient>
<radialGradient id="radial0" gradientUnits="userSpaceOnUse" cx="450.908936" cy="189.579361" fx="450.908936" fy="189.579361" r="21.166656" gradientTransform="matrix(0.000000261256,-0.117199,-0.210958,-0.000000152308,73.234568,95.392999)">
<stop offset="0" style="stop-color:rgb(0%,0%,0%);stop-opacity:0.313725;"/>
<stop offset="0.222222" style="stop-color:rgb(0%,0%,0%);stop-opacity:0.27451;"/>
<stop offset="1" style="stop-color:rgb(0%,0%,0%);stop-opacity:0;"/>
</radialGradient>
<radialGradient id="radial1" gradientUnits="userSpaceOnUse" cx="450.908936" cy="189.579361" fx="450.908936" fy="189.579361" r="21.166656" gradientTransform="matrix(-0.000000261256,0.117199,0.210958,0.000000152308,-26.597299,-11.291218)">
<stop offset="0" style="stop-color:rgb(0%,0%,0%);stop-opacity:0.313725;"/>
<stop offset="0.222222" style="stop-color:rgb(0%,0%,0%);stop-opacity:0.27451;"/>
<stop offset="1" style="stop-color:rgb(0%,0%,0%);stop-opacity:0;"/>
</radialGradient>
<radialGradient id="radial2" gradientUnits="userSpaceOnUse" cx="450.908936" cy="189.579361" fx="450.908936" fy="189.579361" r="21.166656" gradientTransform="matrix(-0.000000261256,-0.117199,0.210958,-0.000000152308,-26.597299,95.392999)">
<stop offset="0" style="stop-color:rgb(0%,0%,0%);stop-opacity:0.313725;"/>
<stop offset="0.222222" style="stop-color:rgb(0%,0%,0%);stop-opacity:0.27451;"/>
<stop offset="1" style="stop-color:rgb(0%,0%,0%);stop-opacity:0;"/>
</radialGradient>
<radialGradient id="radial3" gradientUnits="userSpaceOnUse" cx="450.908936" cy="189.579361" fx="450.908936" fy="189.579361" r="21.166656" gradientTransform="matrix(0.000000261256,0.117199,-0.210958,0.000000152308,73.234565,-11.291219)">
<stop offset="0" style="stop-color:rgb(0%,0%,0%);stop-opacity:0.313725;"/>
<stop offset="0.222222" style="stop-color:rgb(0%,0%,0%);stop-opacity:0.27451;"/>
<stop offset="1" style="stop-color:rgb(0%,0%,0%);stop-opacity:0;"/>
</radialGradient>
<linearGradient id="linear1" gradientUnits="userSpaceOnUse" x1="960" y1="1695.118164" x2="960" y2="175.118118" gradientTransform="matrix(0.0248071,0,0,0.0248071,0,0)">
<stop offset="0" style="stop-color:rgb(14.901961%,77.647059%,85.490196%);stop-opacity:1;"/>
<stop offset="1" style="stop-color:rgb(30.196078%,81.568627%,88.235294%);stop-opacity:1;"/>
</linearGradient>
</defs>
<g id="surface1">
<path style=" stroke:none;fill-rule:nonzero;fill:url(#linear0);" d="M 12.898438 42.050781 L 33.738281 42.050781 L 33.738281 44.035156 L 12.898438 44.035156 Z M 12.898438 42.050781 "/>
<path style=" stroke:none;fill-rule:nonzero;fill:url(#radial0);" d="M 33.738281 42.050781 L 37.707031 42.050781 L 37.707031 40.066406 L 33.738281 40.066406 Z M 33.738281 42.050781 "/>
<path style=" stroke:none;fill-rule:nonzero;fill:url(#radial1);" d="M 12.898438 42.050781 L 8.929688 42.050781 L 8.929688 44.035156 L 12.898438 44.035156 Z M 12.898438 42.050781 "/>
<path style=" stroke:none;fill-rule:nonzero;fill:url(#radial2);" d="M 12.898438 42.050781 L 8.929688 42.050781 L 8.929688 40.066406 L 12.898438 40.066406 Z M 12.898438 42.050781 "/>
<path style=" stroke:none;fill-rule:nonzero;fill:url(#radial3);" d="M 33.738281 42.050781 L 37.707031 42.050781 L 37.707031 44.035156 L 33.738281 44.035156 Z M 33.738281 42.050781 "/>
<path style=" stroke:none;fill-rule:nonzero;fill:url(#linear1);" d="M 23.816406 4.34375 C 18.867188 4.34375 14.882812 8.328125 14.882812 13.273438 C 14.882812 18.222656 18.867188 22.207031 23.816406 22.207031 C 28.761719 22.207031 32.746094 18.222656 32.746094 13.273438 C 32.746094 8.328125 28.761719 4.34375 23.816406 4.34375 Z M 17.042969 25.0625 C 12.789062 26.25 9.921875 28.519531 9.921875 31.136719 L 9.921875 40.066406 C 9.921875 41.164062 10.808594 42.050781 11.90625 42.050781 L 35.722656 42.050781 C 36.820312 42.050781 37.707031 41.164062 37.707031 40.066406 L 37.707031 31.136719 C 37.707031 28.519531 34.839844 26.25 30.585938 25.0625 C 28.949219 26.960938 26.527344 28.160156 23.816406 28.160156 C 21.101562 28.160156 18.679688 26.960938 17.042969 25.0625 Z M 17.042969 25.0625 "/>
<path style=" stroke:none;fill-rule:nonzero;fill:rgb(100%,100%,100%);fill-opacity:0.235294;" d="M 23.816406 4.34375 C 18.867188 4.34375 14.882812 8.328125 14.882812 13.273438 C 14.882812 13.359375 14.886719 13.441406 14.886719 13.523438 C 15.019531 8.691406 18.949219 4.839844 23.816406 4.839844 C 28.679688 4.839844 32.613281 8.691406 32.742188 13.523438 C 32.742188 13.441406 32.746094 13.359375 32.746094 13.273438 C 32.746094 8.328125 28.761719 4.34375 23.816406 4.34375 Z M 17.042969 25.0625 C 12.789062 26.25 9.921875 28.519531 9.921875 31.136719 L 9.921875 31.632812 C 9.921875 29.015625 12.789062 26.746094 17.042969 25.558594 C 18.679688 27.457031 21.101562 28.65625 23.816406 28.65625 C 26.527344 28.65625 28.949219 27.457031 30.585938 25.558594 C 34.839844 26.746094 37.707031 29.015625 37.707031 31.632812 L 37.707031 31.136719 C 37.707031 28.519531 34.839844 26.25 30.585938 25.0625 C 28.949219 26.960938 26.527344 28.160156 23.816406 28.160156 C 21.101562 28.160156 18.679688 26.960938 17.042969 25.0625 Z M 17.042969 25.0625 "/>
<path style=" stroke:none;fill-rule:nonzero;fill:rgb(0%,0%,0%);fill-opacity:0.235294;" d="M 14.886719 13.066406 C 14.886719 13.136719 14.882812 13.207031 14.882812 13.273438 C 14.882812 18.222656 18.867188 22.207031 23.816406 22.207031 C 28.761719 22.207031 32.746094 18.222656 32.746094 13.273438 C 32.746094 13.207031 32.746094 13.136719 32.742188 13.066406 C 32.632812 17.917969 28.691406 21.789062 23.816406 21.789062 C 18.9375 21.789062 14.996094 17.917969 14.886719 13.066406 Z M 9.921875 39.652344 L 9.921875 40.066406 C 9.921875 41.164062 10.808594 42.050781 11.90625 42.050781 L 35.722656 42.050781 C 36.820312 42.050781 37.707031 41.164062 37.707031 40.066406 L 37.707031 39.652344 C 37.707031 40.75 36.820312 41.636719 35.722656 41.636719 L 11.90625 41.636719 C 10.808594 41.636719 9.921875 40.75 9.921875 39.652344 Z M 9.921875 39.652344 "/>
<path style=" stroke:none;fill-rule:nonzero;fill:rgb(12.941177%,12.941177%,12.941177%);fill-opacity:1;" d="M 23.816406 4.191406 C 18.785156 4.191406 14.730469 8.246094 14.730469 13.273438 C 14.730469 18.304688 18.785156 22.359375 23.816406 22.359375 C 28.84375 22.359375 32.898438 18.304688 32.898438 13.273438 C 32.898438 8.246094 28.84375 4.191406 23.816406 4.191406 Z M 23.816406 4.496094 C 28.679688 4.496094 32.59375 8.410156 32.59375 13.273438 C 32.59375 18.140625 28.679688 22.054688 23.816406 22.054688 C 18.949219 22.054688 15.035156 18.140625 15.035156 13.273438 C 15.035156 8.410156 18.949219 4.496094 23.816406 4.496094 Z M 30.582031 24.910156 C 30.539062 24.914062 30.496094 24.933594 30.46875 24.964844 C 28.863281 26.828125 26.484375 28.007812 23.816406 28.007812 C 21.148438 28.007812 18.765625 26.828125 17.160156 24.964844 C 17.121094 24.921875 17.058594 24.902344 17.003906 24.917969 C 14.859375 25.515625 13.0625 26.382812 11.789062 27.445312 C 10.519531 28.507812 9.769531 29.773438 9.769531 31.136719 L 9.769531 40.066406 C 9.769531 41.246094 10.726562 42.203125 11.90625 42.203125 L 35.722656 42.203125 C 36.902344 42.203125 37.859375 41.246094 37.859375 40.066406 L 37.859375 31.136719 C 37.859375 29.773438 37.109375 28.507812 35.839844 27.445312 C 34.566406 26.382812 32.769531 25.515625 30.625 24.917969 C 30.613281 24.914062 30.597656 24.910156 30.582031 24.910156 Z M 16.996094 25.238281 C 18.65625 27.125 21.09375 28.3125 23.816406 28.3125 C 26.535156 28.3125 28.972656 27.125 30.632812 25.238281 C 32.703125 25.824219 34.4375 26.671875 35.644531 27.679688 C 36.871094 28.703125 37.554688 29.882812 37.554688 31.136719 L 37.554688 40.066406 C 37.554688 41.085938 36.738281 41.898438 35.722656 41.898438 L 11.90625 41.898438 C 10.890625 41.898438 10.074219 41.085938 10.074219 40.066406 L 10.074219 31.136719 C 10.074219 29.882812 10.761719 28.703125 11.984375 27.679688 C 13.195312 26.671875 14.925781 25.824219 16.996094 25.238281 Z M 16.996094 25.238281 "/>
</g>
</svg>
